src/assets/astro.svg

<svg width="85" height="107" viewBox="0 0 85 107" fill="none" xmlns="http://www.w3.org/2000/svg">
<path d="M27.5894 91.1365C22.7555 86.7178 21.3444 77.4335 23.3583 70.7072C26.8503 74.948 31.6888 76.2914 36.7005 77.0497C44.4375 78.2199 52.0359 77.7822 59.2232 74.2459C60.0454 73.841 60.8052 73.3027 61.7036 72.7574C62.378 74.714 62.5535 76.6892 62.318 78.6996C61.7452 83.5957 59.3086 87.3778 55.4332 90.2448C53.8835 91.3916 52.2437 92.4167 50.6432 93.4979C45.7262 96.8213 44.3959 100.718 46.2435 106.386C46.2874 106.525 46.3267 106.663 46.426 107C43.9155 105.876 42.0817 104.24 40.6845 102.089C39.2087 99.8193 38.5066 97.3081 38.4696 94.5909C38.4511 93.2686 38.4511 91.9345 38.2733 90.6309C37.8391 87.4527 36.3471 86.0297 33.5364 85.9478C30.6518 85.8636 28.37 87.6469 27.7649 90.4554C27.7187 90.6707 27.6517 90.8837 27.5847 91.1341L27.5894 91.1365Z" fill="white"/>
<path d="M27.5894 91.1365C22.7555 86.7178 21.3444 77.4335 23.3583 70.7072C26.8503 74.948 31.6888 76.2914 36.7005 77.0497C44.4375 78.2199 52.0359 77.7822 59.2232 74.2459C60.0454 73.841 60.8052 73.3027 61.7036 72.7574C62.378 74.714 62.5535 76.6892 62.318 78.6996C61.7452 83.5957 59.3086 87.3778 55.4332 90.2448C53.8835 91.3916 52.2437 92.4167 50.6432 93.4979C45.7262 96.8213 44.3959 100.718 46.2435 106.386C46.2874 106.525 46.3267 106.663 46.426 107C43.9155 105.876 42.0817 104.24 40.6845 102.089C39.2087 99.8193 38.5066 97.3081 38.4696 94.5909C38.4511 93.2686 38.4511 91.9345 38.2733 90.6309C37.8391 87.4527 36.3471 86.0297 33.5364 85.9478C30.6518 85.8636 28.37 87.6469 27.7649 90.4554C27.7187 90.6707 27.6517 90.8837 27.5847 91.1341L27.5894 91.1365Z" fill="url(#paint0_linear_1_59)"/>
<path d="M0 69.5866C0 69.5866 14.3139 62.6137 28.6678 62.6137L39.4901 29.1204C39.8953 27.5007 41.0783 26.3999 42.4139 26.3999C43.7495 26.3999 44.9325 27.5007 45.3377 29.1204L56.1601 62.6137C73.1601 62.6137 84.8278 69.5866 84.8278 69.5866C84.8278 69.5866 60.5145 3.35233 60.467 3.21944C59.7692 1.2612 58.5911 0 57.0029 0H27.8274C26.2392 0 25.1087 1.2612 24.3634 3.21944C24.3108 3.34983 0 69.5866 0 69.5866Z" fill="white"/>
<defs>
<linearGradient id="paint0_linear_1_59" x1="22.4702" y1="107" x2="69.1451" y2="84.9468" gradientUnits="userSpaceOnUse">
<stop stop-color="#D83333"/>
<stop offset="1" stop-color="#F041FF"/>
</linearGradient>
</defs>
</svg>

<svg width="85" height="107" fill="none" xmlns="http://www.w3.org/2000/svg"><path d="M27.59 91.136c-4.834-4.418-6.246-13.703-4.232-20.429 3.492 4.241 8.33 5.584 13.342 6.343 7.737 1.17 15.336.732 22.523-2.804.822-.405 1.582-.943 2.48-1.489.675 1.957.85 3.932.615 5.943-.573 4.896-3.01 8.678-6.885 11.545-1.55 1.147-3.19 2.172-4.79 3.253-4.917 3.323-6.247 7.22-4.4 12.888.044.139.084.277.183.614-2.51-1.124-4.344-2.76-5.742-4.911-1.475-2.27-2.177-4.78-2.214-7.498-.019-1.322-.019-2.656-.197-3.96-.434-3.178-1.926-4.601-4.737-4.683-2.884-.084-5.166 1.699-5.771 4.507-.046.216-.113.429-.18.68l.004.001z" fill="#fff"/><path d="M27.59 91.136c-4.834-4.418-6.246-13.703-4.232-20.429 3.492 4.241 8.33 5.584 13.342 6.343 7.737 1.17 15.336.732 22.523-2.804.822-.405 1.582-.943 2.48-1.489.675 1.957.85 3.932.615 5.943-.573 4.896-3.01 8.678-6.885 11.545-1.55 1.147-3.19 2.172-4.79 3.253-4.917 3.323-6.247 7.22-4.4 12.888.044.139.084.277.183.614-2.51-1.124-4.344-2.76-5.742-4.911-1.475-2.27-2.177-4.78-2.214-7.498-.019-1.322-.019-2.656-.197-3.96-.434-3.178-1.926-4.601-4.737-4.683-2.884-.084-5.166 1.699-5.771 4.507-.046.216-.113.429-.18.68l.004.001z" fill="url(#paint0_linear_1_59)"/><path d="M0 69.587s14.314-6.973 28.668-6.973L39.49 29.12c.405-1.62 1.588-2.72 2.924-2.72 1.335 0 2.518 1.1 2.924 2.72L56.16 62.614c17 0 28.668 6.973 28.668 6.973S60.514 3.352 60.467 3.219C59.769 1.261 58.591 0 57.003 0H27.827c-1.588 0-2.718 1.261-3.464 3.22C24.311 3.35 0 69.586 0 69.586z" fill="#fff"/><defs><linearGradient id="paint0_linear_1_59" x1="22.47" y1="107" x2="69.145" y2="84.947" gradientUnits="userSpaceOnUse"><stop stop-color="#D83333"/><stop offset="1" stop-color="#F041FF"/></linearGradient></defs></svg>
